dist/assets/search.svg

<svg width="22" height="22" viewBox="0 0 22 22" fill="none" xmlns="http://www.w3.org/2000/svg">
<g id="search" clip-path="url(#clip0_6937_282)">
<path id="Vector" d="M14.2083 12.8333H13.4842L13.2275 12.5858C14.1258 11.5408 14.6667 10.1842 14.6667 8.70833C14.6667 5.4175 11.9992 2.75 8.70833 2.75C5.4175 2.75 2.75 5.4175 2.75 8.70833C2.75 11.9992 5.4175 14.6667 8.70833 14.6667C10.1842 14.6667 11.5408 14.1258 12.5858 13.2275L12.8333 13.4842V14.2083L17.4167 18.7825L18.7825 17.4167L14.2083 12.8333ZM8.70833 12.8333C6.42583 12.8333 4.58333 10.9908 4.58333 8.70833C4.58333 6.42583 6.42583 4.58333 8.70833 4.58333C10.9908 4.58333 12.8333 6.42583 12.8333 8.70833C12.8333 10.9908 10.9908 12.8333 8.70833 12.8333Z" fill="#1C4980"/>
</g>
<defs>
<clipPath id="clip0_6937_282">
<rect width="22" height="22" fill="white"/>
</clipPath>
</defs>
</svg>

<svg xmlns="http://www.w3.org/2000/svg" width="22" height="22" fill="none"><g clip-path="url(#a)"><path fill="#1C4980" d="M14.208 12.833h-.724l-.257-.247a5.932 5.932 0 0 0 1.44-3.878 5.958 5.958 0 1 0-5.959 5.959c1.476 0 2.833-.541 3.878-1.44l.247.257v.724l4.584 4.574 1.365-1.365-4.574-4.584Zm-5.5 0a4.12 4.12 0 0 1-4.125-4.125 4.12 4.12 0 0 1 4.125-4.125 4.12 4.12 0 0 1 4.125 4.125 4.12 4.12 0 0 1-4.125 4.125Z"/></g><defs><clipPath id="a"><path fill="#fff" d="M0 0h22v22H0z"/></clipPath></defs></svg>
